X: 3
T: First Of May, The
M: 4/4
L: 1/8
R: barndance
Z: Contributed 2016-12-15 03:24:41 by Jim Gaskins fiddleji@comcast.net
K: Gmaj
|: d2 |\
g2 G2 c>ed>c | B>dG>B c>ed>c | (3Bcd G>B c2 d>c | B>AG>B (3ABA (3def |
g>Gd>G c2 (3edc | B>d (3GAB c2 d>c | BdGd A2 (3cBA | (3GAG F2 G2 :|
|: (3AB^c |\
d2 (3efg .a2 a>A | d>ef>g .a2- a>A | d>ef>g .a2 .a2 | .a2 (3gfe d4 |
.e2 .c2 .e2 .g2 | d>B (3GAB d2 ^c>d | e2 (3gfe (3ded (3cBA |.G2 .F2 .G2 :|
